X: 1
T: The Belharbour
R: reel
M: 4/4
L: 1/8
K: Gmaj
|: DG~G2 DGBd | ~g2gd egdB | A2GB A2BA |GBAF GFEF |
DG~G2 DGBd | g2gd egdB |G2 (3Bcd gedc |1 BGAF G2GE :|2 BGAF ~G2AB ||
|:dggf gGBd | g2af gfed | eaag abag |~e2ag edBc |
dggf gGBd | g2af gedB |GA (3Bcd gedc |1 BGAF ~G2GB :|2 BGAF G2GE ||


Tune 622	Setting 890

